apps/trade/public/tokens/inj.svg

<svg width="24" height="24" viewBox="0 0 24 24" fill="none" xmlns="http://www.w3.org/2000/svg">
    <rect width="24" height="24" rx="12" fill="#160653" />
    <g clip-path="url(#clip0_11541_67)">
        <path
            d="M5.93997 6.76406C6.03997 6.64006 6.14398 6.52006 6.24798 6.40006C6.25198 6.39606 6.26398 6.39206 6.26798 6.38806C6.27598 6.37606 6.29197 6.36806 6.30397 6.35606L6.31197 6.34406C6.38397 6.27606 6.46397 6.20406 6.55197 6.13606C6.87197 5.89606 7.19997 5.71206 7.54797 5.58806C8.66797 5.19606 9.91198 5.43606 10.888 6.36006C12.252 7.63606 12.128 9.69606 11.04 11.0641C9.66398 13.1041 7.30398 15.9481 10.572 18.4961C11.16 18.9561 11.596 19.3321 13.448 19.8681C12.236 20.0921 11.112 20.0201 9.86398 19.7041C8.97998 19.2041 7.58797 18.1361 7.11597 16.6921C6.39997 14.5041 8.37598 11.2281 9.32798 9.96806C10.636 8.22406 8.51997 6.33606 6.95597 8.44406C6.14797 9.54406 4.71997 12.6521 5.21597 14.9601C5.50397 16.2681 5.89197 17.2201 7.42397 18.5321C7.13997 18.3641 6.86397 18.1761 6.59597 17.9601C3.03997 14.6441 3.45197 9.51606 5.93997 6.76406Z"
            fill="url(#paint0_linear_11541_67)" />
        <path
            d="M18.06 17.236C17.96 17.36 17.856 17.48 17.752 17.6C17.748 17.604 17.736 17.608 17.732 17.612C17.724 17.624 17.708 17.632 17.696 17.644L17.688 17.656C17.616 17.724 17.536 17.796 17.448 17.86C17.128 18.1 16.8 18.284 16.452 18.408C15.332 18.8 14.088 18.56 13.112 17.636C11.748 16.36 11.872 14.3 12.96 12.932C14.336 10.892 16.696 8.04803 13.428 5.50003C12.84 5.04003 12.404 4.66403 10.552 4.12803C11.764 3.90403 12.888 3.97603 14.136 4.29203C15.02 4.79203 16.412 5.86003 16.884 7.30403C17.6 9.49203 15.624 12.768 14.672 14.028C13.364 15.772 15.48 17.66 17.044 15.552C17.86 14.452 19.288 11.344 18.792 9.03603C18.504 7.72803 18.116 6.77603 16.584 5.46403C16.868 5.63203 17.144 5.82003 17.412 6.03603C20.96 9.35603 20.548 14.484 18.06 17.236Z"
            fill="url(#paint1_linear_11541_67)" />
    </g>
    <defs>
        <linearGradient id="paint0_linear_11541_67" x1="3.99997" y1="12.7055" x2="20" y2="12.7055"
            gradientUnits="userSpaceOnUse">
            <stop stop-color="#0082FA" />
            <stop offset="1" stop-color="#00F2FE" />
        </linearGradient>
        <linearGradient id="paint1_linear_11541_67" x1="4" y1="11.2946" x2="20" y2="11.2946"
            gradientUnits="userSpaceOnUse">
            <stop stop-color="#0082FA" />
            <stop offset="1" stop-color="#00F2FE" />
        </linearGradient>
        <clipPath id="clip0_11541_67">
            <rect width="16" height="16" fill="white" transform="translate(4 4)" />
        </clipPath>
    </defs>
</svg>

<svg width="24" height="24" fill="none" xmlns="http://www.w3.org/2000/svg">
    <rect width="24" height="24" rx="12" fill="#160653"/>
    <g clip-path="url(#a)">
        <path d="M5.94 6.764c.1-.124.204-.244.308-.364.004-.004.016-.008.02-.012.008-.012.024-.02.036-.032l.008-.012c.072-.068.152-.14.24-.208.32-.24.648-.424.996-.548 1.12-.392 2.364-.152 3.34.772 1.364 1.276 1.24 3.336.152 4.704-1.376 2.04-3.736 4.884-.468 7.432.588.46 1.024.836 2.876 1.372-1.212.224-2.336.152-3.584-.164-.884-.5-2.276-1.568-2.748-3.012-.716-2.188 1.26-5.464 2.212-6.724 1.308-1.744-.808-3.632-2.372-1.524-.808 1.1-2.236 4.208-1.74 6.516.288 1.308.676 2.26 2.208 3.572a6.957 6.957 0 0 1-.828-.572C3.04 14.644 3.452 9.516 5.94 6.764Z" fill="url(#b)"/>
        <path d="M18.06 17.236c-.1.124-.204.244-.308.364-.004.004-.016.008-.02.012-.008.012-.024.02-.036.032l-.008.012a3.762 3.762 0 0 1-1.236.752c-1.12.392-2.364.152-3.34-.772-1.364-1.276-1.24-3.336-.152-4.704 1.376-2.04 3.736-4.884.468-7.432-.588-.46-1.024-.836-2.876-1.372 1.212-.224 2.336-.152 3.584.164.884.5 2.276 1.568 2.748 3.012.716 2.188-1.26 5.464-2.212 6.724-1.308 1.744.808 3.632 2.372 1.524.816-1.1 2.244-4.208 1.748-6.516-.288-1.308-.676-2.26-2.208-3.572.284.168.56.356.828.572 3.548 3.32 3.136 8.448.648 11.2Z" fill="url(#c)"/>
    </g>
    <defs>
        <linearGradient id="b" x1="4" y1="12.706" x2="20" y2="12.706" gradientUnits="userSpaceOnUse">
            <stop stop-color="#0082FA"/>
            <stop offset="1" stop-color="#00F2FE"/>
        </linearGradient>
        <linearGradient id="c" x1="4" y1="11.295" x2="20" y2="11.295" gradientUnits="userSpaceOnUse">
            <stop stop-color="#0082FA"/>
            <stop offset="1" stop-color="#00F2FE"/>
        </linearGradient>
        <clipPath id="a">
            <path fill="#fff" d="M4 4h16v16H4z"/>
        </clipPath>
    </defs>
</svg>
